public/assets/icons/github.svg

<svg width="48" height="48" viewBox="0 0 256 256" fill="none"
        xmlns="http://www.w3.org/2000/svg"
        xmlns:xlink="http://www.w3.org/1999/xlink" version="1.1">

        <g transform="translate(0, 0)">
                <svg width="256" height="256" viewBox="0 0 256 256" fill="none"
                        xmlns="http://www.w3.org/2000/svg">
                        <rect width="256" height="256" rx="60" fill="#242938"/>
                        <path d="M128.001 30C72.7791 30 28 74.7708 28 130.001C28 174.184 56.6533 211.668 96.3867 224.891C101.384 225.817 103.219 222.722 103.219 220.081C103.219 217.696 103.126 209.819 103.083 201.463C75.2631 207.512 69.3927 189.664 69.3927 189.664C64.8437 178.105 58.2894 175.032 58.2894 175.032C49.2163 168.825 58.9733 168.953 58.9733 168.953C69.0151 169.658 74.3026 179.258 74.3026 179.258C83.2217 194.546 97.6965 190.126 103.403 187.571C104.301 181.107 106.892 176.696 109.752 174.199C87.5405 171.67 64.1913 163.095 64.1913 124.778C64.1913 113.86 68.0977 104.939 74.4947 97.9362C73.4564 95.4175 70.0335 85.2465 75.4635 71.4722C75.4635 71.4722 83.8609 68.7845 102.971 81.7226C110.948 79.5069 119.502 78.3958 128.001 78.3577C136.499 78.3958 145.061 79.5069 153.052 81.7226C172.139 68.7845 180.525 71.4722 180.525 71.4722C185.968 85.2465 182.544 95.4175 181.505 97.9362C187.917 104.939 191.797 113.86 191.797 124.778C191.797 163.187 168.403 171.644 146.135 174.119C149.722 177.223 152.918 183.308 152.918 192.638C152.918 206.018 152.802 216.787 152.802 220.081C152.802 222.742 154.602 225.86 159.671 224.878C199.383 211.64 228 174.169 228 130.001C228 74.7708 183.227 30 128.001 30ZM65.4536 172.453C65.2333 172.95 64.4517 173.099 63.7396 172.758C63.0143 172.432 62.6069 171.754 62.8421 171.256C63.0574 170.744 63.8406 170.602 64.5643 170.945C65.2913 171.271 65.7053 171.955 65.4536 172.453ZM70.3725 176.842C69.8956 177.285 68.9633 177.079 68.3307 176.38C67.6766 175.683 67.554 174.751 68.0376 174.302C68.5294 173.86 69.4336 174.067 70.0893 174.764C70.7434 175.47 70.8709 176.395 70.3725 176.842ZM73.7471 182.458C73.1344 182.884 72.1325 182.485 71.5132 181.595C70.9004 180.706 70.9004 179.64 71.5264 179.212C72.1474 178.785 73.1344 179.169 73.762 180.052C74.373 180.956 74.373 182.023 73.7471 182.458ZM79.4542 188.962C78.9061 189.566 77.7386 189.404 76.8841 188.579C76.0098 187.773 75.7663 186.629 76.3161 186.024C76.8709 185.418 78.045 185.589 78.9061 186.407C79.7738 187.211 80.0387 188.364 79.4542 188.962ZM86.8301 191.157C86.5883 191.941 85.4639 192.297 84.3312 191.964C83.2002 191.621 82.46 190.704 82.6885 189.912C82.9237 189.124 84.053 188.753 85.194 189.109C86.3234 189.45 87.0652 190.361 86.8301 191.157ZM95.2242 192.089C95.2523 192.913 94.2919 193.597 93.1029 193.612C91.9073 193.639 90.9402 192.971 90.9269 192.16C90.9269 191.327 91.8659 190.65 93.0615 190.63C94.2505 190.607 95.2242 191.269 95.2242 192.089ZM103.47 191.773C103.613 192.577 102.787 193.404 101.606 193.624C100.445 193.836 99.3702 193.339 99.2229 192.541C99.0788 191.716 99.92 190.89 101.079 190.676C102.262 190.471 103.32 190.955 103.47 191.773Z" fill="white"/>
                </svg>

        </g>

</svg>

<svg xmlns="http://www.w3.org/2000/svg" width="48" height="48" fill="none" viewBox="0 0 256 256"><svg xmlns="http://www.w3.org/2000/svg" width="256" height="256" viewBox="0 0 256 256"><rect width="256" height="256" fill="#242938" rx="60"/><path fill="#fff" d="M128.001 30C72.779 30 28 74.77 28 130.001c0 44.183 28.653 81.667 68.387 94.89 4.997.926 6.832-2.169 6.832-4.81 0-2.385-.093-10.262-.136-18.618-27.82 6.049-33.69-11.799-33.69-11.799-4.55-11.559-11.104-14.632-11.104-14.632-9.073-6.207.684-6.079.684-6.079 10.042.705 15.33 10.305 15.33 10.305 8.919 15.288 23.394 10.868 29.1 8.313.898-6.464 3.489-10.875 6.349-13.372-22.211-2.529-45.56-11.104-45.56-49.421 0-10.918 3.906-19.839 10.303-26.842-1.039-2.519-4.462-12.69.968-26.464 0 0 8.398-2.687 27.508 10.25 7.977-2.215 16.531-3.326 25.03-3.364 8.498.038 17.06 1.149 25.051 3.365 19.087-12.939 27.473-10.25 27.473-10.25 5.443 13.773 2.019 23.945.98 26.463 6.412 7.003 10.292 15.924 10.292 26.842 0 38.409-23.394 46.866-45.662 49.341 3.587 3.104 6.783 9.189 6.783 18.519 0 13.38-.116 24.149-.116 27.443 0 2.661 1.8 5.779 6.869 4.797C199.383 211.64 228 174.169 228 130.001 228 74.771 183.227 30 128.001 30M65.454 172.453c-.22.497-1.002.646-1.714.305-.726-.326-1.133-1.004-.898-1.502.215-.512.999-.654 1.722-.311.727.326 1.141 1.01.89 1.508m4.919 4.389c-.477.443-1.41.237-2.042-.462-.654-.697-.777-1.629-.293-2.078.491-.442 1.396-.235 2.051.462.654.706.782 1.631.284 2.078m3.374 5.616c-.613.426-1.615.027-2.234-.863-.613-.889-.613-1.955.013-2.383.621-.427 1.608-.043 2.236.84.611.904.611 1.971-.015 2.406m5.707 6.504c-.548.604-1.715.442-2.57-.383-.874-.806-1.118-1.95-.568-2.555.555-.606 1.729-.435 2.59.383.868.804 1.133 1.957.548 2.555m7.376 2.195c-.242.784-1.366 1.14-2.499.807-1.13-.343-1.871-1.26-1.642-2.052.235-.788 1.364-1.159 2.505-.803 1.13.341 1.871 1.252 1.636 2.048m8.394.932c.028.824-.932 1.508-2.121 1.523-1.196.027-2.163-.641-2.176-1.452 0-.833.939-1.51 2.134-1.53 1.19-.023 2.163.639 2.163 1.459m8.246-.316c.143.804-.683 1.631-1.864 1.851-1.161.212-2.236-.285-2.383-1.083-.144-.825.697-1.651 1.856-1.865 1.183-.205 2.241.279 2.391 1.097"/></svg></svg>
